Sweet-Rainbow/icons/livepatch.svg

<?xml version="1.0" encoding="UTF-8" standalone="no"?>
<!-- Generator: Gravit.io -->

<svg
   xmlns:dc="http://purl.org/dc/elements/1.1/"
   xmlns:cc="http://creativecommons.org/ns#"
   xmlns:rdf="http://www.w3.org/1999/02/22-rdf-syntax-ns#"
   xmlns:svg="http://www.w3.org/2000/svg"
   xmlns="http://www.w3.org/2000/svg"
   xmlns:sodipodi="http://sodipodi.sourceforge.net/DTD/sodipodi-0.dtd"
   xmlns:inkscape="http://www.inkscape.org/namespaces/inkscape"
   style="isolation:isolate"
   viewBox="0 0 36 36"
   width="48"
   height="48"
   version="1.1"
   id="svg11"
   sodipodi:docname="livepatch.svg"
   inkscape:version="0.92.4 (5da689c313, 2019-01-14)">
  <metadata
     id="metadata17">
    <rdf:RDF>
      <cc:Work
         rdf:about="">
        <dc:format>image/svg+xml</dc:format>
        <dc:type
           rdf:resource="http://purl.org/dc/dcmitype/StillImage" />
        <dc:title></dc:title>
      </cc:Work>
    </rdf:RDF>
  </metadata>
  <defs
     id="defs15" />
  <sodipodi:namedview
     pagecolor="#ffffff"
     bordercolor="#666666"
     borderopacity="1"
     objecttolerance="10"
     gridtolerance="10"
     guidetolerance="10"
     inkscape:pageopacity="0"
     inkscape:pageshadow="2"
     inkscape:window-width="640"
     inkscape:window-height="480"
     id="namedview13"
     showgrid="false"
     inkscape:zoom="29.365243"
     inkscape:cx="25.325443"
     inkscape:cy="32"
     inkscape:current-layer="svg11"
     units="px" />
  <linearGradient
     id="_lgradient_20"
     x1="0.34027779"
     y1="0.036585364"
     x2="1.0087188"
     y2="1.0127324"
     gradientTransform="matrix(-54.312,-30.106,-30.197,54.476,66.255,11.815)"
     gradientUnits="userSpaceOnUse">
    <stop
       offset="0%"
       stop-opacity="1"
       style="stop-color:rgb(156,51,196)"
       id="stop2" />
    <stop
       offset="51.30434782608696%"
       stop-opacity="1"
       style="stop-color:rgb(255,25,80)"
       id="stop4" />
    <stop
       offset="98.69565217391305%"
       stop-opacity="1"
       style="stop-color:rgb(255,135,36)"
       id="stop6" />
  </linearGradient>
  <g
     id="g825"
     transform="matrix(0.7827854,0,0,0.7827854,-0.78682657,-0.78669924)">
    <path
       id="path9"
       d="m 7.637,33.823 0.419,0.633 v 0 c 1.686,2.57 3.969,4.681 6.654,6.169 2.589,1.435 5.477,2.247 8.431,2.364 v 0 c 1.105,0.045 1.966,0.978 1.921,2.083 v 0 c -0.044,1.105 -0.978,1.965 -2.082,1.921 v 0 C 19.4,46.85 15.902,45.859 12.771,44.124 9.727,42.436 7.11,40.085 5.115,37.249 4.75,38.248 3.657,38.787 2.636,38.46 v 0 C 1.585,38.124 1.005,36.998 1.341,35.948 v 0 l 1.407,-4.41 c 0.335,-1.052 1.503,-1.867 2.606,-1.819 l 3.998,0.173 v 0 c 1.097,0.046 1.951,0.978 1.905,2.079 v 0 c -0.045,1.102 -0.979,1.959 -2.084,1.915 v 0 z m 32.877,-19.06 v 0 c 0.539,0.961 1.761,1.308 2.726,0.773 v 0 c 0.966,-0.534 1.313,-1.753 0.776,-2.719 v 0 C 41.924,9.062 38.824,5.971 35.072,3.891 31.67,2.005 27.84,1.014 23.946,1.005 v 0 c -1.104,0 -2.001,0.897 -2.001,2.001 v 0 c 0,1.105 0.897,2.001 2.001,2.001 v 0 c 3.214,-0.002 6.37,0.822 9.187,2.383 3.105,1.721 5.659,4.269 7.381,7.373 z m -6.365,25.261 v 0 c -0.935,0.593 -1.211,1.83 -0.617,2.762 v 0 c 0.594,0.932 1.831,1.206 2.761,0.61 v 0 c 3.229,-2.051 5.888,-4.888 7.744,-8.238 1.416,-2.554 2.336,-5.348 2.701,-8.233 v 0 c 0.14,-1.096 -0.636,-2.1 -1.731,-2.24 v 0 c -1.096,-0.141 -2.1,0.635 -2.241,1.731 v 0 c -0.293,2.387 -1.059,4.695 -2.227,6.803 -1.532,2.764 -3.731,5.101 -6.39,6.805 z m -2.938,5.3 c 0.535,-0.965 0.185,-2.184 -0.78,-2.719 -0.965,-0.535 -2.184,-0.186 -2.719,0.78 -0.535,0.965 -0.186,2.184 0.78,2.719 0.965,0.535 2.184,0.186 2.719,-0.78 z M 30.918,27.886 c 1.028,-1.854 1.282,-4.046 0.698,-6.085 -0.585,-2.039 -1.962,-3.763 -3.816,-4.79 -1.854,-1.028 -4.046,-1.283 -6.085,-0.698 -2.039,0.585 -3.763,1.962 -4.791,3.816 -1.028,1.854 -1.282,4.046 -0.697,6.085 0.585,2.039 1.962,3.763 3.816,4.79 1.854,1.028 4.045,1.283 6.085,0.698 2.039,-0.585 3.762,-1.962 4.79,-3.816 z m 3.499,1.939 c 1.541,-2.781 1.914,-6.073 1.046,-9.127 -0.882,-3.05 -2.943,-5.644 -5.724,-7.186 -2.781,-1.542 -6.073,-1.914 -9.127,-1.046 -3.05,0.882 -5.645,2.942 -7.186,5.724 -1.542,2.781 -1.915,6.073 -1.046,9.127 0.882,3.05 2.942,5.644 5.724,7.186 2.781,1.542 6.073,1.914 9.127,1.046 3.05,-0.882 5.644,-2.943 7.186,-5.724 z"
       style="fill:url(#_lgradient_20);fill-rule:evenodd"
       inkscape:connector-curvature="0" />
  </g>
</svg>

<?xml version="1.0" encoding="UTF-8" standalone="no"?><!-- Generator: Gravit.io --><svg xmlns="http://www.w3.org/2000/svg" xmlns:xlink="http://www.w3.org/1999/xlink" style="isolation:isolate" viewBox="0 0 48 48" width="48pt" height="48pt"><linearGradient id="_lgradient_20" x1="0.34027777777777773" y1="0.036585365853658625" x2="1.0087187958883996" y2="1.012732351993124" gradientTransform="matrix(-54.312,-30.106,-30.197,54.476,66.255,11.815)" gradientUnits="userSpaceOnUse"><stop offset="0%" stop-opacity="1" style="stop-color:rgb(156,51,196)"/><stop offset="51.30434782608696%" stop-opacity="1" style="stop-color:rgb(255,25,80)"/><stop offset="98.69565217391305%" stop-opacity="1" style="stop-color:rgb(255,135,36)"/></linearGradient><path d=" M 7.637 33.823 L 8.056 34.456 L 8.056 34.456 C 9.742 37.026 12.025 39.137 14.71 40.625 C 17.299 42.06 20.187 42.872 23.141 42.989 L 23.141 42.989 C 24.246 43.034 25.107 43.967 25.062 45.072 L 25.062 45.072 C 25.018 46.177 24.084 47.037 22.98 46.993 L 22.98 46.993 C 19.4 46.85 15.902 45.859 12.771 44.124 C 9.727 42.436 7.11 40.085 5.115 37.249 C 4.75 38.248 3.657 38.787 2.636 38.46 L 2.636 38.46 C 1.585 38.124 1.005 36.998 1.341 35.948 L 1.341 35.948 L 2.748 31.538 C 3.083 30.486 4.251 29.671 5.354 29.719 L 9.352 29.892 L 9.352 29.892 C 10.449 29.938 11.303 30.87 11.257 31.971 L 11.257 31.971 C 11.212 33.073 10.278 33.93 9.173 33.886 L 9.173 33.886 L 7.637 33.823 L 7.637 33.823 L 7.637 33.823 Z  M 40.514 14.763 L 40.514 14.763 C 41.053 15.724 42.275 16.071 43.24 15.536 L 43.24 15.536 C 44.206 15.002 44.553 13.783 44.016 12.817 L 44.016 12.817 C 41.924 9.062 38.824 5.971 35.072 3.891 C 31.67 2.005 27.84 1.014 23.946 1.005 L 23.946 1.005 C 22.842 1.005 21.945 1.902 21.945 3.006 L 21.945 3.006 C 21.945 4.111 22.842 5.007 23.946 5.007 L 23.946 5.007 C 27.16 5.005 30.316 5.829 33.133 7.39 C 36.238 9.111 38.792 11.659 40.514 14.763 L 40.514 14.763 L 40.514 14.763 L 40.514 14.763 L 40.514 14.763 Z  M 34.149 40.024 L 34.149 40.024 C 33.214 40.617 32.938 41.854 33.532 42.786 L 33.532 42.786 C 34.126 43.718 35.363 43.992 36.293 43.396 L 36.293 43.396 C 39.522 41.345 42.181 38.508 44.037 35.158 C 45.453 32.604 46.373 29.81 46.738 26.925 L 46.738 26.925 C 46.878 25.829 46.102 24.825 45.007 24.685 L 45.007 24.685 C 43.911 24.544 42.907 25.32 42.766 26.416 L 42.766 26.416 C 42.473 28.803 41.707 31.111 40.539 33.219 C 39.007 35.983 36.808 38.32 34.149 40.024 L 34.149 40.024 L 34.149 40.024 L 34.149 40.024 L 34.149 40.024 Z  M 31.211 45.324 C 31.746 44.359 31.396 43.14 30.431 42.605 C 29.466 42.07 28.247 42.419 27.712 43.385 C 27.177 44.35 27.526 45.569 28.492 46.104 C 29.457 46.639 30.676 46.29 31.211 45.324 L 31.211 45.324 Z  M 30.918 27.886 C 31.946 26.032 32.2 23.84 31.616 21.801 C 31.031 19.762 29.654 18.038 27.8 17.011 C 25.946 15.983 23.754 15.728 21.715 16.313 C 19.676 16.898 17.952 18.275 16.924 20.129 C 15.896 21.983 15.642 24.175 16.227 26.214 C 16.812 28.253 18.189 29.977 20.043 31.004 C 21.897 32.032 24.088 32.287 26.128 31.702 C 28.167 31.117 29.89 29.74 30.918 27.886 L 30.918 27.886 Z  M 34.417 29.825 C 35.958 27.044 36.331 23.752 35.463 20.698 C 34.581 17.648 32.52 15.054 29.739 13.512 C 26.958 11.97 23.666 11.598 20.612 12.466 C 17.562 13.348 14.967 15.408 13.426 18.19 C 11.884 20.971 11.511 24.263 12.38 27.317 C 13.262 30.367 15.322 32.961 18.104 34.503 C 20.885 36.045 24.177 36.417 27.231 35.549 C 30.281 34.667 32.875 32.606 34.417 29.825 L 34.417 29.825 Z " fill-rule="evenodd" fill="url(#_lgradient_20)"/></svg>
